packages/kaspersky-hexa-ui-icons/src/iconsSVGs/24/Facebook2.svg

<svg width="24" height="24" viewBox="0 0 24 24" fill="none" xmlns="http://www.w3.org/2000/svg">
<path d="M13.6399 22V12.8769H16.8832L17.3688 9.32174H13.64V7.052C13.64 6.02258 13.943 5.32103 15.5059 5.32103L17.5 5.32047V2.1404C17.1553 2.09671 15.9718 2 14.5944 2C11.7195 2 9.7516 3.65729 9.7516 6.69991V9.32176H6.5V12.8769H9.75152V22H13.6399Z" fill="black"/>
</svg>

<svg xmlns="http://www.w3.org/2000/svg" width="24" height="24" fill="none" viewBox="0 0 24 24"><path fill="#000" d="M13.6399 22v-9.1231h3.2433l.4856-3.5552H13.64V7.052c0-1.0294.303-1.731 1.8659-1.731L17.5 5.3205V2.1404C17.1553 2.0967 15.9718 2 14.5944 2c-2.8749 0-4.8428 1.6573-4.8428 4.7v2.6218H6.5v3.5551h3.2515V22z"/></svg>
